X: 5
T: Jackie Coleman's
R: reel
M: 4/4
L: 1/8
K: Dmaj
F2 AF BFAF|E2 BE dEBE|ABde fedB|AFFF EFDE|F2 AF BFAF|E2 BE dEBE|ABde fd d2|1AFFF EFDE:|2fddc dfag||fddc dfaf|eA A2 eAfA|eA A2 efge|fddc dfagfddc dfaf|g2 gf gbag|faeg fd d2|1fddc dfag:|2AFFF EFDE||


Tune 50	Setting 50

